svgs/calculator.svg

<svg width="192" height="192" viewBox="0 0 192 192" fill="none" xmlns="http://www.w3.org/2000/svg">
<path d="M22 46.6135H80.303M111.697 120.613H170M111.697 152.007H170M120.235 26L161.462 67.227M120.235 67.227L161.462 26M22.4317 136.742H80.7347M51.5832 165.894V107.591" stroke="black" stroke-width="12" stroke-linecap="round" stroke-linejoin="round"/>
</svg>

<svg width="192" height="192" fill="none" xmlns="http://www.w3.org/2000/svg"><path d="M22 46.614h58.303m31.394 73.999H170m-58.303 31.394H170M120.235 26l41.227 41.227m-41.227 0L161.462 26M22.432 136.742h58.303m-29.152 29.152v-58.303" stroke="#000" stroke-width="12" stroke-linecap="round" stroke-linejoin="round"/></svg>
